X: 97
T: No_26_Third_Song_of_the_Mî'nîsîno'wuck.krn
%%abc-version 2.0
%%abcx-abcm2ps-target-version 5.9.1 (29 Sep 2008)
%%abc-creator hum2abc beta
%%abcx-conversion-date 2020/08/10 18:54:57
%%humdrum-veritas 3564448862
%%humdrum-veritas-data 2965605438
%%linebreak <none>
%%barnumbers 0
L: 1/4
M: 3/4
K: D clef=treble
[K:clef=treble][M:3/4]F2A/A/ | 
FF2 | 
FED | 
DD2 | 
B,2B,/B,/ | 
B,B,2 | 
B,B,B, | 
B,3 | 
D2D/D/ | 
B,B,2 | 
B,B,B, | 
B,3[K:clef=bass] | 
F,2F,/F,/ | 
F,F,2 | 
F,E,D, | 
D,3 |]  


